symbolic/32x32/apps/brave-browser-nightly.svg

<svg xmlns="http://www.w3.org/2000/svg" width="32" height="32" version="1.1">
 <path style="opacity:0.2" d="M 11.572,3 9.2161,5.3969 C 9.1848,5.4072 8.9546,5.215 8.7036,5.1412 8.0306,4.9435 7.1761,4.9773 6.5956,5.241 6.2159,5.4135 6.0687,5.5349 5.1656,6.4223 4.1921,7.3786 4,7.6081 4,7.8113 4,7.864 4.3518,8.3773 4.5249,8.7793 L 4.839,9.5107 4.4354,10.618 C 4.2134,11.227 4.0219,11.759 4.0083,11.801 3.9738,11.908 7.1253,24.045 7.29,24.436 7.589,25.146 8.059,25.782 8.6677,26.304 9.2174,26.774 14.796,30.582 15.348,30.863 15.512,30.947 15.775,30.995 16,31 16.225,30.995 16.488,30.947 16.652,30.863 17.204,30.582 22.783,26.774 23.332,26.304 23.941,25.782 24.411,25.146 24.71,24.436 24.875,24.045 28.026,11.908 27.992,11.801 27.978,11.759 27.787,11.227 27.565,10.618 L 27.161,9.5107 27.475,8.7793 C 27.648,8.3773 28,7.864 28,7.8113 28,7.6081 27.808,7.3786 26.834,6.4223 25.931,5.5349 25.784,5.4135 25.404,5.241 24.824,4.9773 23.969,4.9435 23.296,5.1412 23.045,5.215 22.815,5.4072 22.784,5.3969 L 20.428,3 H 16 Z"/>
 <path style="fill:#ab47bc" d="M 11.572,2 9.2161,4.3969 C 9.1848,4.4072 8.9546,4.215 8.7036,4.1412 8.0306,3.9435 7.1761,3.9773 6.5956,4.241 6.2159,4.4135 6.0687,4.5349 5.1656,5.4223 4.1921,6.3786 4,6.6081 4,6.8113 4,6.864 4.3518,7.3773 4.5249,7.7793 L 4.839,8.5107 4.4354,9.6182 C 4.2134,10.227 4.0219,10.759 4.0083,10.801 3.9738,10.908 7.1253,23.045 7.29,23.436 7.589,24.146 8.059,24.782 8.6677,25.304 9.2174,25.774 14.796,29.582 15.348,29.863 15.512,29.947 15.775,29.995 16,30 16.225,29.995 16.488,29.947 16.652,29.863 17.204,29.582 22.783,25.774 23.332,25.304 23.941,24.782 24.411,24.146 24.71,23.436 24.875,23.045 28.026,10.908 27.992,10.801 27.978,10.759 27.787,10.227 27.565,9.6182 L 27.161,8.5107 27.475,7.7793 C 27.648,7.3773 28,6.864 28,6.8113 28,6.6081 27.808,6.3786 26.834,5.4223 25.931,4.5349 25.784,4.4135 25.404,4.241 24.824,3.9773 23.969,3.9435 23.296,4.1412 23.045,4.215 22.815,4.4072 22.784,4.3969 L 20.428,2 H 16 Z"/>
 <path style="opacity:0.2" d="M 17.128,24.247 C 17.128,24.247 18.355,23.438 19.448,22.657 20.062,22.217 20.159,22.105 20.059,21.95 19.978,21.825 17.996,20.85 17.048,20.469 16.051,20.068 15.946,20.068 14.979,20.461 14.112,20.813 12.16,21.778 11.997,21.935 11.827,22.098 11.913,22.248 12.339,22.536 13.216,23.13 14.899,24.272 14.899,24.272 16.044,25.246 15.955,25.247 17.128,24.248 Z M 12.529,20.76 C 13.719,20.201 13.897,20.085 14.806,19.28 15.571,18.603 15.713,18.401 15.604,18.145 15.567,18.058 14.992,17.528 14.327,16.967 12.754,15.642 12.82,15.829 13.418,14.39 13.774,13.536 13.866,13.25 13.865,13.013 13.863,12.655 13.73,12.386 13.463,12.201 13.355,12.125 12.405,11.742 11.351,11.349 10.298,10.956 9.442,10.609 9.4494,10.577 9.4662,10.504 10.628,10.378 11.471,10.357 L 12.109,10.341 13.282,10.75 C 14.305,11.107 14.466,11.181 14.543,11.326 14.591,11.417 14.63,11.54 14.629,11.599 14.628,11.657 14.439,12.506 14.208,13.485 13.803,15.199 13.792,15.268 13.897,15.373 14.064,15.539 15.699,15.925 16.21,15.886 16.793,15.842 17.985,15.486 18.105,15.367 18.203,15.27 18.184,15.161 17.788,13.485 17.557,12.506 17.367,11.657 17.366,11.599 17.365,11.54 17.404,11.416 17.453,11.324 17.53,11.179 17.681,11.108 18.592,10.79 20.061,10.276 20.031,10.28 21.366,10.399 21.989,10.454 22.523,10.523 22.554,10.551 22.586,10.582 22.549,10.626 22.462,10.659 22.382,10.689 21.523,11.011 20.554,11.375 19.585,11.738 18.69,12.101 18.566,12.181 18.274,12.37 18.132,12.64 18.13,13.01 18.128,13.245 18.221,13.529 18.566,14.356 18.808,14.932 19.005,15.458 19.005,15.524 19.005,15.792 18.805,16.008 17.699,16.937 17.064,17.471 16.5,17.987 16.446,18.083 16.392,18.179 16.361,18.326 16.378,18.409 16.406,18.551 17.166,19.287 17.942,19.92 18.267,20.186 20.239,21.42 20.554,21.47 20.819,21.512 21.102,21.117 21.564,20.734 22.018,20.358 22.288,19.982 22.472,19.471 22.644,18.992 22.601,18.669 22.26,17.893 22,17.301 21.931,16.975 22.018,16.753 22.038,16.702 22.742,16.036 23.583,15.273 25.413,13.611 25.85,13.313 25.951,13.016 26.062,12.687 25.983,11.753 25.733,11.316 25.135,10.271 22.65,7.0001 22.439,7.0001 21.352,7.1739 20.442,7.5583 19.297,7.7349 19.207,7.735 18.824,7.6415 18.446,7.5267 16.833,7.0375 16.31,7 15.997,7 15.685,7 15.162,7.0373 13.549,7.5267 13.171,7.6412 12.784,7.7351 12.689,7.7351 11.56,7.5719 10.724,7.1332 9.5557,7.0001 9.3736,7.1207 7.7577,9.3366 7.0887,10.305 6.302,11.443 6.0796,12.089 6.0156,12.523 5.9261,13.129 6.1537,13.231 8.5041,15.361 9.2947,16.078 9.9577,16.705 9.9774,16.755 10.066,16.98 9.9959,17.318 9.7395,17.911 9.3874,18.725 9.3559,18.952 9.5258,19.443 9.7106,19.978 10.024,20.41 10.497,20.784 10.937,21.131 11.107,21.478 11.367,21.484 11.46,21.486 11.983,21.016 12.529,20.76 Z"/>
 <path style="fill:#ffffff" d="M 17.128,23.247 C 17.128,23.247 18.355,22.438 19.448,21.657 20.062,21.217 20.159,21.105 20.059,20.95 19.978,20.825 17.996,19.85 17.048,19.469 16.051,19.068 15.946,19.068 14.979,19.461 14.112,19.813 12.16,20.778 11.997,20.935 11.827,21.098 11.913,21.248 12.339,21.536 13.216,22.13 14.899,23.272 14.899,23.272 16.044,24.246 15.955,24.247 17.128,23.248 Z M 12.529,19.76 C 13.719,19.201 13.897,19.085 14.806,18.28 15.571,17.603 15.713,17.401 15.604,17.145 15.567,17.058 14.992,16.528 14.327,15.967 12.754,14.642 12.82,14.829 13.418,13.39 13.774,12.536 13.866,12.25 13.865,12.013 13.863,11.655 13.73,11.386 13.463,11.201 13.355,11.125 12.405,10.742 11.351,10.349 10.298,9.9563 9.442,9.6087 9.4494,9.5769 9.4662,9.5041 10.628,9.3777 11.471,9.3568 L 12.109,9.3409 13.282,9.7502 C 14.305,10.107 14.466,10.181 14.543,10.326 14.591,10.417 14.63,10.54 14.629,10.599 14.628,10.657 14.439,11.506 14.208,12.485 13.803,14.199 13.792,14.268 13.897,14.373 14.064,14.539 15.699,14.925 16.21,14.886 16.793,14.842 17.985,14.486 18.105,14.367 18.203,14.27 18.184,14.161 17.788,12.485 17.557,11.506 17.367,10.657 17.366,10.599 17.365,10.54 17.404,10.416 17.453,10.324 17.53,10.179 17.681,10.108 18.592,9.7898 20.061,9.2761 20.031,9.2803 21.366,9.3988 21.989,9.4541 22.523,9.5226 22.554,9.5512 22.586,9.5819 22.549,9.6261 22.462,9.6586 22.382,9.6891 21.523,10.011 20.554,10.375 19.585,10.738 18.69,11.101 18.566,11.181 18.274,11.37 18.132,11.64 18.13,12.01 18.128,12.245 18.221,12.529 18.566,13.356 18.808,13.932 19.005,14.458 19.005,14.524 19.005,14.792 18.805,15.008 17.699,15.937 17.064,16.471 16.5,16.987 16.446,17.083 16.392,17.179 16.361,17.326 16.378,17.409 16.406,17.551 17.166,18.287 17.942,18.92 18.267,19.186 20.239,20.42 20.554,20.47 20.819,20.512 21.102,20.117 21.564,19.734 22.018,19.358 22.288,18.982 22.472,18.471 22.644,17.992 22.601,17.669 22.26,16.893 22,16.301 21.931,15.975 22.018,15.753 22.038,15.702 22.742,15.036 23.583,14.273 25.413,12.611 25.85,12.313 25.951,12.016 26.062,11.687 25.983,10.753 25.733,10.316 25.135,9.2712 22.65,6.0001 22.439,6.0001 21.352,6.1739 20.442,6.5583 19.297,6.7349 19.207,6.735 18.824,6.6415 18.446,6.5267 16.833,6.0375 16.31,6 15.997,6 15.685,6 15.162,6.0373 13.549,6.5267 13.171,6.6412 12.784,6.7351 12.689,6.7351 11.56,6.5719 10.724,6.1332 9.5557,6.0001 9.3736,6.1207 7.7577,8.3366 7.0887,9.3048 6.302,10.443 6.0796,11.089 6.0156,11.523 5.9261,12.129 6.1537,12.231 8.5041,14.361 9.2947,15.078 9.9577,15.705 9.9774,15.755 10.066,15.98 9.9959,16.318 9.7395,16.911 9.3874,17.725 9.3559,17.952 9.5258,18.443 9.7106,18.978 10.024,19.41 10.497,19.784 10.937,20.131 11.107,20.478 11.367,20.484 11.46,20.486 11.983,20.016 12.529,19.76 Z"/>
 <path style="opacity:0.1;fill:#ffffff" d="M 11.572,2 9.2168,4.3965 C 9.1855,4.4068 8.9542,4.2144 8.7031,4.1406 8.0302,3.9429 7.1762,3.9765 6.5957,4.2402 6.216,4.4128 6.0691,4.5346 5.166,5.4219 4.1926,6.3782 4,6.6074 4,6.8105 4,6.8439 4.1377,7.0705 4.2852,7.3281 4.4593,7.1274 4.7143,6.8656 5.166,6.4219 6.0691,5.5346 6.216,5.4128 6.5957,5.2402 7.1762,4.9765 8.0302,4.9429 8.7031,5.1406 8.9542,5.2144 9.1855,5.4068 9.2168,5.3965 L 11.572,3 H 16 20.428 L 22.783,5.3965 C 22.814,5.4068 23.046,5.2144 23.297,5.1406 23.97,4.9429 24.824,4.9765 25.404,5.2402 25.784,5.4128 25.931,5.5346 26.834,6.4219 27.286,6.8656 27.541,7.1274 27.715,7.3281 27.862,7.0705 28,6.8439 28,6.8105 28,6.6074 27.807,6.3782 26.834,5.4219 25.931,4.5346 25.784,4.4128 25.404,4.2402 24.824,3.9765 23.97,3.9429 23.297,4.1406 23.046,4.2144 22.814,4.4068 22.783,4.3965 L 20.428,2 H 16 Z M 4.6426,9.0527 4.4355,9.6191 C 4.2136,10.228 4.0214,10.759 4.0078,10.801 4.0062,10.806 4.1442,11.334 4.1562,11.391 4.2342,11.174 4.2906,11.017 4.4355,10.619 L 4.8398,9.5117 Z M 27.357,9.0527 27.16,9.5117 27.564,10.619 C 27.709,11.017 27.766,11.174 27.844,11.391 27.856,11.334 27.994,10.806 27.992,10.801 27.979,10.759 27.786,10.228 27.564,9.6191 Z"/>
</svg>

<svg xmlns="http://www.w3.org/2000/svg" width="32" height="32"><path style="opacity:.2" d="M11.572 3 9.216 5.397c-.031.01-.261-.182-.512-.256-.673-.197-1.528-.164-2.108.1-.38.173-.527.294-1.43 1.181C4.192 7.38 4 7.608 4 7.812c0 .052.352.565.525.967l.314.732-.404 1.107c-.222.609-.413 1.141-.427 1.183-.034.107 3.117 12.244 3.282 12.635.299.71.769 1.346 1.378 1.868.55.47 6.128 4.278 6.68 4.559.164.084.427.132.652.137.225-.005.488-.053.652-.137.552-.281 6.131-4.089 6.68-4.559a5.042 5.042 0 0 0 1.378-1.868c.165-.391 3.316-12.528 3.282-12.635-.014-.042-.205-.574-.427-1.183l-.404-1.107.314-.732c.173-.402.525-.915.525-.968 0-.203-.192-.432-1.166-1.389-.903-.887-1.05-1.008-1.43-1.181-.58-.264-1.435-.297-2.108-.1-.251.074-.481.266-.512.256L20.428 3H16z"/><path style="fill:#ab47bc" d="M11.572 2 9.216 4.397c-.031.01-.261-.182-.512-.256-.673-.198-1.528-.164-2.108.1-.38.173-.527.294-1.43 1.181C4.192 6.38 4 6.608 4 6.812c0 .052.352.565.525.967l.314.732-.404 1.107c-.222.609-.413 1.141-.427 1.183-.034.107 3.117 12.244 3.282 12.635.299.71.769 1.346 1.378 1.868.55.47 6.128 4.278 6.68 4.559.164.084.427.132.652.137.225-.005.488-.053.652-.137.552-.281 6.131-4.089 6.68-4.559a5.042 5.042 0 0 0 1.378-1.868c.165-.391 3.316-12.528 3.282-12.635-.014-.042-.205-.574-.427-1.183l-.404-1.107.314-.732c.173-.402.525-.915.525-.968 0-.203-.192-.432-1.166-1.389-.903-.887-1.05-1.008-1.43-1.181-.58-.264-1.435-.297-2.108-.1-.251.074-.481.266-.512.256L20.428 2H16z"/><path style="opacity:.2" d="M17.128 24.247s1.227-.809 2.32-1.59c.614-.44.711-.552.611-.707-.081-.125-2.063-1.1-3.011-1.481-.997-.401-1.102-.401-2.069-.008-.867.352-2.819 1.317-2.982 1.474-.17.163-.084.313.342.601l2.56 1.736c1.145.974 1.056.975 2.229-.024zm-4.599-3.487c1.19-.559 1.368-.675 2.277-1.48.765-.677.907-.879.798-1.135-.037-.087-.612-.617-1.277-1.178-1.573-1.325-1.507-1.138-.909-2.577.356-.854.448-1.14.447-1.377-.002-.358-.135-.627-.402-.812-.108-.076-1.058-.459-2.112-.852-1.053-.393-1.909-.74-1.902-.772.017-.073 1.179-.199 2.022-.22l.638-.016 1.173.409c1.023.357 1.184.431 1.261.576a.732.732 0 0 1 .086.273c-.001.058-.19.907-.421 1.886-.405 1.714-.416 1.783-.311 1.888.167.166 1.802.552 2.313.513.583-.044 1.775-.4 1.895-.519.098-.097.079-.206-.317-1.882-.231-.979-.421-1.828-.422-1.886a.732.732 0 0 1 .087-.275c.077-.145.228-.216 1.139-.534 1.469-.514 1.439-.51 2.774-.391.623.055 1.157.124 1.188.152.032.031-.005.075-.092.108l-1.908.716c-.969.363-1.864.726-1.988.806-.292.189-.434.459-.436.829-.002.235.091.519.436 1.346.242.576.439 1.102.439 1.168 0 .268-.2.484-1.306 1.413-.635.534-1.199 1.05-1.253 1.146a.564.564 0 0 0-.068.326c.028.142.788.878 1.564 1.511.325.266 2.297 1.5 2.612 1.55.265.042.548-.353 1.01-.736.454-.376.724-.752.908-1.263.172-.479.129-.802-.212-1.578-.26-.592-.329-.918-.242-1.14.02-.051.724-.717 1.565-1.48 1.83-1.662 2.267-1.96 2.368-2.257.111-.329.032-1.263-.218-1.7C25.135 10.271 22.65 7 22.439 7c-1.087.174-1.997.558-3.142.735-.09 0-.473-.094-.851-.208C16.833 7.037 16.31 7 15.997 7c-.312 0-.835.037-2.448.527-.378.114-.765.208-.86.208-1.129-.163-1.965-.602-3.133-.735-.182.12-1.798 2.337-2.467 3.305-.787 1.138-1.01 1.784-1.073 2.218-.09.606.138.708 2.488 2.838.79.717 1.454 1.344 1.473 1.394.089.225.019.563-.238 1.156-.352.814-.383 1.041-.213 1.532.185.535.498.967.971 1.341.44.347.61.694.87.7.093.002.616-.468 1.162-.724z"/><path style="fill:#fff" d="M17.128 23.247s1.227-.809 2.32-1.59c.614-.44.711-.552.611-.707-.081-.125-2.063-1.1-3.011-1.481-.997-.401-1.102-.401-2.069-.008-.867.352-2.819 1.317-2.982 1.474-.17.163-.084.313.342.601l2.56 1.736c1.145.974 1.056.975 2.229-.024zm-4.599-3.487c1.19-.559 1.368-.675 2.277-1.48.765-.677.907-.879.798-1.135-.037-.087-.612-.617-1.277-1.178-1.573-1.325-1.507-1.138-.909-2.577.356-.854.448-1.14.447-1.377-.002-.358-.135-.627-.402-.812-.108-.076-1.058-.459-2.112-.852-1.053-.393-1.909-.74-1.902-.772.017-.073 1.179-.2 2.022-.22l.638-.016 1.173.41c1.023.356 1.184.43 1.261.575a.732.732 0 0 1 .086.273c-.001.058-.19.907-.421 1.886-.405 1.714-.416 1.783-.311 1.888.167.166 1.802.552 2.313.513.583-.044 1.775-.4 1.895-.519.098-.097.079-.206-.317-1.882-.231-.979-.421-1.828-.422-1.886a.732.732 0 0 1 .087-.275c.077-.145.228-.216 1.139-.534 1.469-.514 1.439-.51 2.774-.391.623.055 1.157.124 1.188.152.032.03-.005.075-.092.108l-1.908.716c-.969.363-1.864.726-1.988.806-.292.189-.434.459-.436.829-.002.235.091.519.436 1.346.242.576.439 1.102.439 1.168 0 .268-.2.484-1.306 1.413-.635.534-1.199 1.05-1.253 1.146a.564.564 0 0 0-.068.326c.028.142.788.878 1.564 1.511.325.266 2.297 1.5 2.612 1.55.265.042.548-.353 1.01-.736.454-.376.724-.752.908-1.263.172-.479.129-.802-.212-1.578-.26-.592-.329-.918-.242-1.14.02-.051.724-.717 1.565-1.48 1.83-1.662 2.267-1.96 2.368-2.257.111-.329.032-1.263-.218-1.7C25.135 9.271 22.65 6 22.439 6c-1.087.174-1.997.558-3.142.735-.09 0-.473-.094-.851-.208C16.833 6.037 16.31 6 15.997 6c-.312 0-.835.037-2.448.527-.378.114-.765.208-.86.208-1.129-.163-1.965-.602-3.133-.735-.182.12-1.798 2.337-2.467 3.305-.787 1.138-1.01 1.784-1.073 2.218-.09.606.138.708 2.488 2.838.79.717 1.454 1.344 1.473 1.394.089.225.019.563-.238 1.156-.352.814-.383 1.041-.213 1.532.185.535.498.967.971 1.341.44.347.61.694.87.7.093.002.616-.468 1.162-.724z"/><path style="opacity:.1;fill:#fff" d="M11.572 2 9.217 4.396c-.032.01-.263-.182-.514-.255-.673-.198-1.527-.164-2.107.1-.38.172-.527.294-1.43 1.18C4.193 6.379 4 6.608 4 6.812c0 .033.138.26.285.517.174-.2.43-.462.881-.906.903-.887 1.05-1.01 1.43-1.182.58-.264 1.434-.297 2.107-.1.251.074.482.267.514.256L11.572 3h8.856l2.355 2.396c.031.01.263-.182.514-.255.673-.198 1.527-.165 2.107.1.38.172.527.294 1.43 1.18.452.445.707.706.881.907.147-.258.285-.484.285-.518 0-.203-.193-.432-1.166-1.388-.903-.887-1.05-1.01-1.43-1.182-.58-.264-1.434-.297-2.107-.1-.251.074-.483.267-.514.256L20.428 2H16zm-6.93 7.053-.207.566c-.221.609-.414 1.14-.427 1.182-.002.005.136.533.148.59l.28-.772.404-1.107zm22.715 0-.197.459.404 1.107.28.772c.012-.057.15-.585.148-.59-.013-.042-.206-.573-.428-1.182z"/></svg>
